svgs/thin/tachograph-digital.svg

<svg xmlns="http://www.w3.org/2000/svg" viewBox="0 0 640 512"><!-- Font Awesome Pro 6.0.0-alpha2 by @fontawesome - https://fontawesome.com License - https://fontawesome.com/license (Commercial License) --><path d="M576 64H64C28.801 64 0 92.801 0 128V384C0 419.199 28.801 448 64 448H576C611.201 448 640 419.199 640 384V128C640 92.801 611.201 64 576 64ZM624 384C624 410.467 602.467 432 576 432H64C37.533 432 16 410.467 16 384V128C16 101.533 37.533 80 64 80H576C602.467 80 624 101.533 624 128V384ZM72 320H88C92.375 320 96 316.375 96 312V296C96 291.625 92.375 288 88 288H72C67.625 288 64 291.625 64 296V312C64 316.375 67.625 320 72 320ZM152 320C156.375 320 160 316.375 160 312V296C160 291.625 156.375 288 152 288H136C131.625 288 128 291.625 128 296V312C128 316.375 131.625 320 136 320H152ZM216 320C220.375 320 224 316.375 224 312V296C224 291.625 220.375 288 216 288H200C195.625 288 192 291.625 192 296V312C192 316.375 195.625 320 200 320H216ZM280 320C284.375 320 288 316.375 288 312V296C288 291.625 284.375 288 280 288H264C259.625 288 256 291.625 256 296V312C256 316.375 259.625 320 264 320H280ZM344 288H328C323.625 288 320 291.625 320 296V312C320 316.375 323.625 320 328 320H344C348.375 320 352 316.375 352 312V296C352 291.625 348.375 288 344 288ZM320 128H96C78.328 128 64 142.326 64 160V224C64 241.674 78.328 256 96 256H320C337.674 256 352 241.674 352 224V160C352 142.326 337.674 128 320 128ZM336 224C336 232.822 328.822 240 320 240H96C87.178 240 80 232.822 80 224V160C80 151.178 87.178 144 96 144H320C328.822 144 336 151.178 336 160V224ZM344 368H72C67.578 368 64 371.594 64 376S67.578 384 72 384H344C348.422 384 352 380.406 352 376S348.422 368 344 368ZM568 368H392C387.578 368 384 371.594 384 376S387.578 384 392 384H568C572.422 384 576 380.406 576 376S572.422 368 568 368Z"/></svg>

<svg xmlns="http://www.w3.org/2000/svg" viewBox="0 0 640 512"><!--! Font Awesome Pro 6.3.0 by @fontawesome - https://fontawesome.com License - https://fontawesome.com/license (Commercial License) Copyright 2023 Fonticons, Inc. --><path d="M576 64H64C28.8 64 0 92.8 0 128v256c0 35.2 28.8 64 64 64h512c35.2 0 64-28.8 64-64V128C640 92.8 611.2 64 576 64zM624 384c0 26.47-21.53 48-48 48H64c-26.47 0-48-21.53-48-48V128c0-26.47 21.53-48 48-48h512c26.47 0 48 21.53 48 48V384zM72 320h16C92.38 320 96 316.4 96 312v-16C96 291.6 92.38 288 88 288h-16C67.63 288 64 291.6 64 296v16C64 316.4 67.63 320 72 320zM152 320C156.4 320 160 316.4 160 312v-16C160 291.6 156.4 288 152 288h-16C131.6 288 128 291.6 128 296v16C128 316.4 131.6 320 136 320H152zM216 320C220.4 320 224 316.4 224 312v-16C224 291.6 220.4 288 216 288h-16C195.6 288 192 291.6 192 296v16C192 316.4 195.6 320 200 320H216zM280 320C284.4 320 288 316.4 288 312v-16C288 291.6 284.4 288 280 288h-16C259.6 288 256 291.6 256 296v16C256 316.4 259.6 320 264 320H280zM344 288h-16C323.6 288 320 291.6 320 296v16C320 316.4 323.6 320 328 320h16C348.4 320 352 316.4 352 312v-16C352 291.6 348.4 288 344 288zM320 128H96C78.33 128 64 142.3 64 160v64c0 17.67 14.33 32 32 32h224c17.67 0 32-14.33 32-32V160C352 142.3 337.7 128 320 128zM336 224c0 8.822-7.178 16-16 16H96C87.18 240 80 232.8 80 224V160c0-8.822 7.178-16 16-16h224c8.822 0 16 7.178 16 16V224zM344 368h-272C67.58 368 64 371.6 64 376S67.58 384 72 384h272c4.422 0 8-3.594 8-8S348.4 368 344 368zM568 368h-176c-4.422 0-8 3.594-8 8S387.6 384 392 384h176c4.422 0 8-3.594 8-8S572.4 368 568 368z"/></svg>
